Newaita-dark/apps/48/avidemux.svg

<svg height="48pt" viewBox="0 0 48 48" width="48pt" xmlns="http://www.w3.org/2000/svg" xmlns:xlink="http://www.w3.org/1999/xlink"><linearGradient id="a" gradientUnits="userSpaceOnUse" x1="23.81478" x2="23.81478" y1="42.0509015" y2="44.03546750005"><stop offset="0" stop-opacity=".27451"/><stop offset="1" stop-opacity="0"/></linearGradient><linearGradient id="b"><stop offset="0" stop-opacity=".313725"/><stop offset=".222222" stop-opacity=".27451"/><stop offset="1" stop-opacity="0"/></linearGradient><radialGradient id="c" cx="450.908936" cy="189.579361" gradientTransform="matrix(.00000026 -.117199 -.210958 -.00000015 80.180537 95.392996)" gradientUnits="userSpaceOnUse" r="21.166656" xlink:href="#b"/><radialGradient id="d" cx="450.908936" cy="189.579361" gradientTransform="matrix(-.00000026 .117199 .210958 .00000015 -32.550992 -11.291221)" gradientUnits="userSpaceOnUse" r="21.166656" xlink:href="#b"/><radialGradient id="e" cx="450.908936" cy="189.579361" gradientTransform="matrix(-.00000026 -.117199 .210958 -.00000015 -32.550992 95.392996)" gradientUnits="userSpaceOnUse" r="21.166656" xlink:href="#b"/><radialGradient id="f" cx="450.908936" cy="189.579361" gradientTransform="matrix(.00000026 .117199 -.210958 .00000015 80.180534 -11.291222)" gradientUnits="userSpaceOnUse" r="21.166656" xlink:href="#b"/><linearGradient id="g"><stop offset="0" stop-color="#bdbdbd"/><stop offset="1" stop-color="#e0e0e0"/></linearGradient><linearGradient id="h" gradientTransform="matrix(.113024 0 0 .326118 -8.78102 50.462022)" gradientUnits="userSpaceOnUse" x1="306.916656" x2="305.954559" xlink:href="#g" y1="-25.791676" y2="-135.329163"/><linearGradient id="i"><stop offset="0" stop-color="#424242"/><stop offset="1" stop-color="#616161"/></linearGradient><linearGradient id="j" gradientTransform="matrix(1.20548 0 0 3.478261 -93.655258 323.210175)" gradientUnits="userSpaceOnUse" x1="306.916656" x2="305.954559" xlink:href="#i" y1="-25.791676" y2="-135.329163"/><linearGradient id="k" gradientTransform="matrix(.093759 0 0 -.093759 6.945975 -1.547023)" gradientUnits="userSpaceOnUse" x1="254" x2="254" xlink:href="#g" y1="233.5" y2="-147.5"/><linearGradient id="l" gradientTransform="matrix(.093759 0 0 -.093759 -28.776184 -1.547023)" gradientUnits="userSpaceOnUse" x1="254" x2="254" xlink:href="#g" y1="233.5" y2="-147.5"/><linearGradient id="m" gradientTransform="matrix(.093759 0 0 -.093759 6.945974 -1.547022)" gradientUnits="userSpaceOnUse" x1="254" x2="254" xlink:href="#g" y1="233.5" y2="-147.5"/><linearGradient id="n" gradientTransform="matrix(.093759 0 0 .0781325 0 18.84555)" gradientUnits="userSpaceOnUse" x1="254" x2="254" xlink:href="#i" y1="233.5" y2="-147.5"/><linearGradient id="o" gradientUnits="userSpaceOnUse" x1="30.760761" x2="30.760761" xlink:href="#g" y1="48.0045945" y2="12.2824155"/><linearGradient id="p" gradientUnits="userSpaceOnUse" x1="-4.961398" x2="-4.961398" xlink:href="#g" y1="48.0045945" y2="12.2824155"/><linearGradient id="q" gradientUnits="userSpaceOnUse" x1="30.76076" x2="30.76076" xlink:href="#g" y1="48.0045925" y2="12.2824135"/><linearGradient id="r" gradientTransform="matrix(.113024 0 0 .326118 -8.781019 50.462019)" gradientUnits="userSpaceOnUse" x1="306.916656" x2="305.954559" xlink:href="#i" y1="-25.791676" y2="-135.329163"/><linearGradient id="s" gradientUnits="userSpaceOnUse" x1="68.791664" x2="68.791664" xlink:href="#g" y1="-62.833332" y2="-105.166649"/><path d="m6.945312 42.050781h33.738282v1.984375h-33.738282zm0 0" fill="url(#a)"/><path d="m40.683594 42.050781h3.96875v-1.984375h-3.96875zm0 0" fill="url(#c)"/><path d="m6.945312 42.050781h-3.96875v1.984375h3.96875zm0 0" fill="url(#d)"/><path d="m6.945312 42.050781h-3.96875v-1.984375h3.96875zm0 0" fill="url(#e)"/><path d="m40.683594 42.050781h3.96875v1.984375h-3.96875zm0 0" fill="url(#f)"/><path d="m4.960938 6.328125h37.707031c1.097656 0 1.984375.890625 1.984375 1.984375v31.753906c0 1.097656-.886719 1.984375-1.984375 1.984375h-37.707031c-1.09375 0-1.984376-.886719-1.984376-1.984375v-31.753906c0-1.09375.890626-1.984375 1.984376-1.984375zm0 0" fill="url(#h)"/><path d="m4.960938 42.070312c-1.097657 0-1.984376-.886718-1.984376-1.984374v-.515626c0 1.097657.886719 1.984376 1.984376 1.984376h37.707031c1.101562 0 1.984375-.886719 1.984375-1.984376v.515626c0 1.097656-.882813 1.984374-1.984375 1.984374zm0 0" fill-opacity=".235294"/><path d="m52.911614-147.506445c-11.707215 0-21.164646 9.45743-21.164646 21.164645v42.329291h444.499219v-42.329291c0-11.707215-9.415767-21.164645-21.164645-21.164645zm0 0" fill="url(#j)" stroke="#212121" stroke-linecap="round" stroke-width="3" transform="matrix(.093759 0 0 .093759 0 20.158175)"/><g fill-rule="evenodd"><path d="m15.875 12.28125 3.96875-5.953125h5.957031l-3.96875 5.953125zm0 0" fill="url(#k)"/><path d="m3.96875 12.28125 3.96875-5.953125h5.953125l-3.96875 5.953125zm0 0" fill="url(#l)"/><path d="m27.785156 12.28125 3.96875-5.953125h5.953125l-3.96875 5.953125zm0 0" fill="url(#k)"/><path d="m43.53125 6.523438-3.839844 5.757812h4.960938v-3.96875c0-.789062-.457032-1.46875-1.121094-1.789062zm0 0" fill="url(#m)"/></g><path d="m4.960938 6.441406c-1.097657 0-1.984376.886719-1.984376 1.988282v.515624c0-1.101562.886719-1.984374 1.984376-1.984374h37.707031c1.101562 0 1.984375.882812 1.984375 1.984374v-.515624c0-1.101563-.882813-1.988282-1.984375-1.988282zm0 0" fill="#fff" fill-opacity=".392157"/><path d="m8.433594 11.785156h36.21875v.496094h-36.21875zm0 0" fill-opacity=".235294"/><path d="m4.960938 6.1875c-1.175782 0-2.125.949219-2.125 2.125v31.753906c0 1.175782.949218 2.125 2.125 2.125h37.707031c1.175781 0 2.125-.949218 2.125-2.125v-31.753906c0-1.175781-.949219-2.125-2.125-2.125zm0 .28125h37.707031c1.023437 0 1.84375.820312 1.84375 1.84375v31.753906c0 1.023438-.820313 1.84375-1.84375 1.84375h-37.707031c-1.023438 0-1.84375-.820312-1.84375-1.84375v-31.753906c0-1.023438.820312-1.84375 1.84375-1.84375zm0 0" fill="#212121"/><path d="m2.976562 12.28125h41.675782v4.960938h-41.675782zm0 0" fill="url(#n)"/><path d="m15.875 12.28125 3.96875 5.953125h5.957031l-3.96875-5.953125zm0 0" fill="url(#o)" fill-rule="evenodd"/><path d="m3.96875 12.28125 3.96875 5.953125h5.953125l-3.96875-5.953125zm0 0" fill="url(#p)" fill-rule="evenodd"/><path d="m27.785156 12.28125 3.96875 5.953125h5.953125l-3.96875-5.953125zm0 0" fill="url(#o)" fill-rule="evenodd"/><path d="m39.691406 12.28125 3.96875 5.953125h.992188v-5.953125zm0 0" fill="url(#q)" fill-rule="evenodd"/><path d="m8.433594 12.28125h36.21875v.496094h-36.21875zm0 0" fill="#fff" fill-opacity=".392157"/><path d="m31.746968-84.012509h444.499219v52.911614h-444.499219zm0 0" fill="none" stroke="#212121" stroke-linecap="round" stroke-linejoin="round" stroke-width="3" transform="matrix(.093759 0 0 .093759 0 20.158175)"/><path d="m6.40625 8.808594c-1.902344 0-3.429688 1.550781-3.429688 3.472656v27.785156c0 1.097656.886719 1.984375 1.984376 1.984375h37.707031c1.101562 0 1.984375-.886719 1.984375-1.984375v-22.824218h-34.730469v-4.960938c0-1.921875-1.527344-3.472656-3.425781-3.472656zm0 0" fill="url(#r)"/><path d="m68.785098-105.177154c11.707215 0 21.164646 9.499093 21.164646 21.164645 0 11.707216-9.457431 21.164646-21.164646 21.164646-11.665553 0-21.164646-9.45743-21.164646-21.164646 0-11.665552 9.499093-21.164645 21.164646-21.164645zm0 0" fill="url(#s)" stroke="#212121" stroke-linecap="round" stroke-linejoin="round" stroke-width="3" transform="matrix(.093759 0 0 .093759 0 20.158175)"/><path d="m6.40625 8.683594c-1.902344 0-3.429688 1.550781-3.429688 3.476562v.617188c0-1.921875 1.527344-3.472656 3.429688-3.472656h.089844c1.898437 0 3.425781 1.550781 3.425781 3.472656v-.617188c0-1.925781-1.527344-3.476562-3.425781-3.476562zm3.515625 8.4375v.617187h34.730469v-.617187zm0 0" fill="#fff" fill-opacity=".392157"/><path d="m6.40625 8.667969c-1.976562 0-3.570312 1.617187-3.570312 3.613281v27.785156c0 1.175782.949218 2.125 2.125 2.125h37.707031c1.175781 0 2.125-.949218 2.125-2.125v-22.964844h-34.730469v-4.820312c0-1.996094-1.59375-3.613281-3.566406-3.613281zm0 .28125h.089844c1.820312 0 3.285156 1.484375 3.285156 3.332031v5.101562h34.730469v22.683594c0 1.023438-.820313 1.84375-1.84375 1.84375h-37.707031c-1.023438 0-1.84375-.820312-1.84375-1.84375v-27.785156c0-1.847656 1.464843-3.332031 3.289062-3.332031zm0 0" fill="#212121"/></svg>

<?xml version="1.0" encoding="UTF-8"?>
<svg xmlns="http://www.w3.org/2000/svg" xmlns:xlink="http://www.w3.org/1999/xlink" width="48pt" height="48pt" viewBox="0 0 48 48" version="1.1">
<defs>
<linearGradient id="linear0" gradientUnits="userSpaceOnUse" x1="254" y1="233.5" x2="254" y2="254.666672" gradientTransform="matrix(0.093759,0,0,0.093759,-0.00000572259,20.158175)">
<stop offset="0" style="stop-color:rgb(0%,0%,0%);stop-opacity:0.27451;"/>
<stop offset="1" style="stop-color:rgb(0%,0%,0%);stop-opacity:0;"/>
</linearGradient>
<radialGradient id="radial0" gradientUnits="userSpaceOnUse" cx="450.908936" cy="189.579361" fx="450.908936" fy="189.579361" r="21.166656" gradientTransform="matrix(0.000000261256,-0.117199,-0.210958,-0.000000152308,80.180537,95.392996)">
<stop offset="0" style="stop-color:rgb(0%,0%,0%);stop-opacity:0.313725;"/>
<stop offset="0.222222" style="stop-color:rgb(0%,0%,0%);stop-opacity:0.27451;"/>
<stop offset="1" style="stop-color:rgb(0%,0%,0%);stop-opacity:0;"/>
</radialGradient>
<radialGradient id="radial1" gradientUnits="userSpaceOnUse" cx="450.908936" cy="189.579361" fx="450.908936" fy="189.579361" r="21.166656" gradientTransform="matrix(-0.000000261256,0.117199,0.210958,0.000000152308,-32.550992,-11.291221)">
<stop offset="0" style="stop-color:rgb(0%,0%,0%);stop-opacity:0.313725;"/>
<stop offset="0.222222" style="stop-color:rgb(0%,0%,0%);stop-opacity:0.27451;"/>
<stop offset="1" style="stop-color:rgb(0%,0%,0%);stop-opacity:0;"/>
</radialGradient>
<radialGradient id="radial2" gradientUnits="userSpaceOnUse" cx="450.908936" cy="189.579361" fx="450.908936" fy="189.579361" r="21.166656" gradientTransform="matrix(-0.000000261256,-0.117199,0.210958,-0.000000152308,-32.550992,95.392996)">
<stop offset="0" style="stop-color:rgb(0%,0%,0%);stop-opacity:0.313725;"/>
<stop offset="0.222222" style="stop-color:rgb(0%,0%,0%);stop-opacity:0.27451;"/>
<stop offset="1" style="stop-color:rgb(0%,0%,0%);stop-opacity:0;"/>
</radialGradient>
<radialGradient id="radial3" gradientUnits="userSpaceOnUse" cx="450.908936" cy="189.579361" fx="450.908936" fy="189.579361" r="21.166656" gradientTransform="matrix(0.000000261256,0.117199,-0.210958,0.000000152308,80.180534,-11.291222)">
<stop offset="0" style="stop-color:rgb(0%,0%,0%);stop-opacity:0.313725;"/>
<stop offset="0.222222" style="stop-color:rgb(0%,0%,0%);stop-opacity:0.27451;"/>
<stop offset="1" style="stop-color:rgb(0%,0%,0%);stop-opacity:0;"/>
</radialGradient>
<linearGradient id="linear1" gradientUnits="userSpaceOnUse" x1="306.916656" y1="-25.791676" x2="305.954559" y2="-135.329163" gradientTransform="matrix(0.113024,0,0,0.326118,-8.78102,50.462022)">
<stop offset="0" style="stop-color:rgb(74.117647%,74.117647%,74.117647%);stop-opacity:1;"/>
<stop offset="1" style="stop-color:rgb(87.843137%,87.843137%,87.843137%);stop-opacity:1;"/>
</linearGradient>
<linearGradient id="linear2" gradientUnits="userSpaceOnUse" x1="306.916656" y1="-25.791676" x2="305.954559" y2="-135.329163" gradientTransform="matrix(1.20548,0,0,3.478261,-93.655258,323.210175)">
<stop offset="0" style="stop-color:rgb(25.882353%,25.882353%,25.882353%);stop-opacity:1;"/>
<stop offset="1" style="stop-color:rgb(38.039216%,38.039216%,38.039216%);stop-opacity:1;"/>
</linearGradient>
<linearGradient id="linear3" gradientUnits="userSpaceOnUse" x1="254" y1="233.5" x2="254" y2="-147.5" gradientTransform="matrix(0.093759,0,0,-0.093759,6.945975,-1.547023)">
<stop offset="0" style="stop-color:rgb(74.117647%,74.117647%,74.117647%);stop-opacity:1;"/>
<stop offset="1" style="stop-color:rgb(87.843137%,87.843137%,87.843137%);stop-opacity:1;"/>
</linearGradient>
<linearGradient id="linear4" gradientUnits="userSpaceOnUse" x1="254" y1="233.5" x2="254" y2="-147.5" gradientTransform="matrix(0.093759,0,0,-0.093759,-28.776184,-1.547023)">
<stop offset="0" style="stop-color:rgb(74.117647%,74.117647%,74.117647%);stop-opacity:1;"/>
<stop offset="1" style="stop-color:rgb(87.843137%,87.843137%,87.843137%);stop-opacity:1;"/>
</linearGradient>
<linearGradient id="linear5" gradientUnits="userSpaceOnUse" x1="254" y1="233.5" x2="254" y2="-147.5" gradientTransform="matrix(0.093759,0,0,-0.093759,6.945975,-1.547023)">
<stop offset="0" style="stop-color:rgb(74.117647%,74.117647%,74.117647%);stop-opacity:1;"/>
<stop offset="1" style="stop-color:rgb(87.843137%,87.843137%,87.843137%);stop-opacity:1;"/>
</linearGradient>
<linearGradient id="linear6" gradientUnits="userSpaceOnUse" x1="254" y1="233.5" x2="254" y2="-147.5" gradientTransform="matrix(0.093759,0,0,-0.093759,6.945974,-1.547022)">
<stop offset="0" style="stop-color:rgb(74.117647%,74.117647%,74.117647%);stop-opacity:1;"/>
<stop offset="1" style="stop-color:rgb(87.843137%,87.843137%,87.843137%);stop-opacity:1;"/>
</linearGradient>
<linearGradient id="linear7" gradientUnits="userSpaceOnUse" x1="254" y1="233.5" x2="254" y2="-147.5" gradientTransform="matrix(0.093759,0,0,0.0781325,0,18.84555)">
<stop offset="0" style="stop-color:rgb(25.882353%,25.882353%,25.882353%);stop-opacity:1;"/>
<stop offset="1" style="stop-color:rgb(38.039216%,38.039216%,38.039216%);stop-opacity:1;"/>
</linearGradient>
<linearGradient id="linear8" gradientUnits="userSpaceOnUse" x1="254" y1="233.5" x2="254" y2="-147.5" gradientTransform="matrix(0.093759,0,0,0.093759,6.945975,26.111868)">
<stop offset="0" style="stop-color:rgb(74.117647%,74.117647%,74.117647%);stop-opacity:1;"/>
<stop offset="1" style="stop-color:rgb(87.843137%,87.843137%,87.843137%);stop-opacity:1;"/>
</linearGradient>
<linearGradient id="linear9" gradientUnits="userSpaceOnUse" x1="254" y1="233.5" x2="254" y2="-147.5" gradientTransform="matrix(0.093759,0,0,0.093759,-28.776184,26.111868)">
<stop offset="0" style="stop-color:rgb(74.117647%,74.117647%,74.117647%);stop-opacity:1;"/>
<stop offset="1" style="stop-color:rgb(87.843137%,87.843137%,87.843137%);stop-opacity:1;"/>
</linearGradient>
<linearGradient id="linear10" gradientUnits="userSpaceOnUse" x1="254" y1="233.5" x2="254" y2="-147.5" gradientTransform="matrix(0.093759,0,0,0.093759,6.945975,26.111868)">
<stop offset="0" style="stop-color:rgb(74.117647%,74.117647%,74.117647%);stop-opacity:1;"/>
<stop offset="1" style="stop-color:rgb(87.843137%,87.843137%,87.843137%);stop-opacity:1;"/>
</linearGradient>
<linearGradient id="linear11" gradientUnits="userSpaceOnUse" x1="254" y1="233.5" x2="254" y2="-147.5" gradientTransform="matrix(0.093759,0,0,0.093759,6.945974,26.111866)">
<stop offset="0" style="stop-color:rgb(74.117647%,74.117647%,74.117647%);stop-opacity:1;"/>
<stop offset="1" style="stop-color:rgb(87.843137%,87.843137%,87.843137%);stop-opacity:1;"/>
</linearGradient>
<linearGradient id="linear12" gradientUnits="userSpaceOnUse" x1="306.916656" y1="-25.791676" x2="305.954559" y2="-135.329163" gradientTransform="matrix(0.113024,0,0,0.326118,-8.781019,50.462019)">
<stop offset="0" style="stop-color:rgb(25.882353%,25.882353%,25.882353%);stop-opacity:1;"/>
<stop offset="1" style="stop-color:rgb(38.039216%,38.039216%,38.039216%);stop-opacity:1;"/>
</linearGradient>
<linearGradient id="linear13" gradientUnits="userSpaceOnUse" x1="68.791664" y1="-62.833332" x2="68.791664" y2="-105.166649" gradientTransform="matrix(1,0,0,1,0,0)">
<stop offset="0" style="stop-color:rgb(74.117647%,74.117647%,74.117647%);stop-opacity:1;"/>
<stop offset="1" style="stop-color:rgb(87.843137%,87.843137%,87.843137%);stop-opacity:1;"/>
</linearGradient>
</defs>
<g id="surface1">
<path style=" stroke:none;fill-rule:nonzero;fill:url(#linear0);" d="M 6.945312 42.050781 L 40.683594 42.050781 L 40.683594 44.035156 L 6.945312 44.035156 Z M 6.945312 42.050781 "/>
<path style=" stroke:none;fill-rule:nonzero;fill:url(#radial0);" d="M 40.683594 42.050781 L 44.652344 42.050781 L 44.652344 40.066406 L 40.683594 40.066406 Z M 40.683594 42.050781 "/>
<path style=" stroke:none;fill-rule:nonzero;fill:url(#radial1);" d="M 6.945312 42.050781 L 2.976562 42.050781 L 2.976562 44.035156 L 6.945312 44.035156 Z M 6.945312 42.050781 "/>
<path style=" stroke:none;fill-rule:nonzero;fill:url(#radial2);" d="M 6.945312 42.050781 L 2.976562 42.050781 L 2.976562 40.066406 L 6.945312 40.066406 Z M 6.945312 42.050781 "/>
<path style=" stroke:none;fill-rule:nonzero;fill:url(#radial3);" d="M 40.683594 42.050781 L 44.652344 42.050781 L 44.652344 44.035156 L 40.683594 44.035156 Z M 40.683594 42.050781 "/>
<path style=" stroke:none;fill-rule:nonzero;fill:url(#linear1);" d="M 4.960938 6.328125 L 42.667969 6.328125 C 43.765625 6.328125 44.652344 7.21875 44.652344 8.3125 L 44.652344 40.066406 C 44.652344 41.164062 43.765625 42.050781 42.667969 42.050781 L 4.960938 42.050781 C 3.867188 42.050781 2.976562 41.164062 2.976562 40.066406 L 2.976562 8.3125 C 2.976562 7.21875 3.867188 6.328125 4.960938 6.328125 Z M 4.960938 6.328125 "/>
<path style=" stroke:none;fill-rule:nonzero;fill:rgb(0%,0%,0%);fill-opacity:0.235294;" d="M 4.960938 42.070312 C 3.863281 42.070312 2.976562 41.183594 2.976562 40.085938 L 2.976562 39.570312 C 2.976562 40.667969 3.863281 41.554688 4.960938 41.554688 L 42.667969 41.554688 C 43.769531 41.554688 44.652344 40.667969 44.652344 39.570312 L 44.652344 40.085938 C 44.652344 41.183594 43.769531 42.070312 42.667969 42.070312 Z M 4.960938 42.070312 "/>
<path style="fill-rule:nonzero;fill:url(#linear2);stroke-width:3;stroke-linecap:round;stroke-linejoin:miter;stroke:rgb(12.941177%,12.941177%,12.941177%);stroke-opacity:1;stroke-miterlimit:4;" d="M 52.911614 -147.506445 C 41.204399 -147.506445 31.746968 -138.049015 31.746968 -126.3418 L 31.746968 -84.012509 L 476.246187 -84.012509 L 476.246187 -126.3418 C 476.246187 -138.049015 466.83042 -147.506445 455.081542 -147.506445 Z M 52.911614 -147.506445 " transform="matrix(0.093759,0,0,0.093759,0,20.158175)"/>
<path style=" stroke:none;fill-rule:evenodd;fill:url(#linear3);" d="M 15.875 12.28125 L 19.84375 6.328125 L 25.800781 6.328125 L 21.832031 12.28125 Z M 15.875 12.28125 "/>
<path style=" stroke:none;fill-rule:evenodd;fill:url(#linear4);" d="M 3.96875 12.28125 L 7.9375 6.328125 L 13.890625 6.328125 L 9.921875 12.28125 Z M 3.96875 12.28125 "/>
<path style=" stroke:none;fill-rule:evenodd;fill:url(#linear5);" d="M 27.785156 12.28125 L 31.753906 6.328125 L 37.707031 6.328125 L 33.738281 12.28125 Z M 27.785156 12.28125 "/>
<path style=" stroke:none;fill-rule:evenodd;fill:url(#linear6);" d="M 43.53125 6.523438 L 39.691406 12.28125 L 44.652344 12.28125 L 44.652344 8.3125 C 44.652344 7.523438 44.195312 6.84375 43.53125 6.523438 Z M 43.53125 6.523438 "/>
<path style=" stroke:none;fill-rule:nonzero;fill:rgb(100%,100%,100%);fill-opacity:0.392157;" d="M 4.960938 6.441406 C 3.863281 6.441406 2.976562 7.328125 2.976562 8.429688 L 2.976562 8.945312 C 2.976562 7.84375 3.863281 6.960938 4.960938 6.960938 L 42.667969 6.960938 C 43.769531 6.960938 44.652344 7.84375 44.652344 8.945312 L 44.652344 8.429688 C 44.652344 7.328125 43.769531 6.441406 42.667969 6.441406 Z M 4.960938 6.441406 "/>
<path style=" stroke:none;fill-rule:nonzero;fill:rgb(0%,0%,0%);fill-opacity:0.235294;" d="M 8.433594 11.785156 L 44.652344 11.785156 L 44.652344 12.28125 L 8.433594 12.28125 Z M 8.433594 11.785156 "/>
<path style=" stroke:none;fill-rule:nonzero;fill:rgb(12.941177%,12.941177%,12.941177%);fill-opacity:1;" d="M 4.960938 6.1875 C 3.785156 6.1875 2.835938 7.136719 2.835938 8.3125 L 2.835938 40.066406 C 2.835938 41.242188 3.785156 42.191406 4.960938 42.191406 L 42.667969 42.191406 C 43.84375 42.191406 44.792969 41.242188 44.792969 40.066406 L 44.792969 8.3125 C 44.792969 7.136719 43.84375 6.1875 42.667969 6.1875 Z M 4.960938 6.46875 L 42.667969 6.46875 C 43.691406 6.46875 44.511719 7.289062 44.511719 8.3125 L 44.511719 40.066406 C 44.511719 41.089844 43.691406 41.910156 42.667969 41.910156 L 4.960938 41.910156 C 3.9375 41.910156 3.117188 41.089844 3.117188 40.066406 L 3.117188 8.3125 C 3.117188 7.289062 3.9375 6.46875 4.960938 6.46875 Z M 4.960938 6.46875 "/>
<path style=" stroke:none;fill-rule:nonzero;fill:url(#linear7);" d="M 2.976562 12.28125 L 44.652344 12.28125 L 44.652344 17.242188 L 2.976562 17.242188 Z M 2.976562 12.28125 "/>
<path style=" stroke:none;fill-rule:evenodd;fill:url(#linear8);" d="M 15.875 12.28125 L 19.84375 18.234375 L 25.800781 18.234375 L 21.832031 12.28125 Z M 15.875 12.28125 "/>
<path style=" stroke:none;fill-rule:evenodd;fill:url(#linear9);" d="M 3.96875 12.28125 L 7.9375 18.234375 L 13.890625 18.234375 L 9.921875 12.28125 Z M 3.96875 12.28125 "/>
<path style=" stroke:none;fill-rule:evenodd;fill:url(#linear10);" d="M 27.785156 12.28125 L 31.753906 18.234375 L 37.707031 18.234375 L 33.738281 12.28125 Z M 27.785156 12.28125 "/>
<path style=" stroke:none;fill-rule:evenodd;fill:url(#linear11);" d="M 39.691406 12.28125 L 43.660156 18.234375 L 44.652344 18.234375 L 44.652344 12.28125 Z M 39.691406 12.28125 "/>
<path style=" stroke:none;fill-rule:nonzero;fill:rgb(100%,100%,100%);fill-opacity:0.392157;" d="M 8.433594 12.28125 L 44.652344 12.28125 L 44.652344 12.777344 L 8.433594 12.777344 Z M 8.433594 12.28125 "/>
<path style="fill:none;stroke-width:3;stroke-linecap:round;stroke-linejoin:round;stroke:rgb(12.941177%,12.941177%,12.941177%);stroke-opacity:1;stroke-miterlimit:4;" d="M 31.746968 -84.012509 L 476.246187 -84.012509 L 476.246187 -31.100895 L 31.746968 -31.100895 Z M 31.746968 -84.012509 " transform="matrix(0.093759,0,0,0.093759,0,20.158175)"/>
<path style=" stroke:none;fill-rule:nonzero;fill:url(#linear12);" d="M 6.40625 8.808594 C 4.503906 8.808594 2.976562 10.359375 2.976562 12.28125 L 2.976562 40.066406 C 2.976562 41.164062 3.863281 42.050781 4.960938 42.050781 L 42.667969 42.050781 C 43.769531 42.050781 44.652344 41.164062 44.652344 40.066406 L 44.652344 17.242188 L 9.921875 17.242188 L 9.921875 12.28125 C 9.921875 10.359375 8.394531 8.808594 6.496094 8.808594 Z M 6.40625 8.808594 "/>
<path style="fill-rule:nonzero;fill:url(#linear13);stroke-width:3;stroke-linecap:round;stroke-linejoin:round;stroke:rgb(12.941177%,12.941177%,12.941177%);stroke-opacity:1;stroke-miterlimit:4;" d="M 68.785098 -105.177154 C 80.492313 -105.177154 89.949744 -95.678061 89.949744 -84.012509 C 89.949744 -72.305293 80.492313 -62.847863 68.785098 -62.847863 C 57.119545 -62.847863 47.620452 -72.305293 47.620452 -84.012509 C 47.620452 -95.678061 57.119545 -105.177154 68.785098 -105.177154 Z M 68.785098 -105.177154 " transform="matrix(0.093759,0,0,0.093759,0,20.158175)"/>
<path style=" stroke:none;fill-rule:nonzero;fill:rgb(100%,100%,100%);fill-opacity:0.392157;" d="M 6.40625 8.683594 C 4.503906 8.683594 2.976562 10.234375 2.976562 12.160156 L 2.976562 12.777344 C 2.976562 10.855469 4.503906 9.304688 6.40625 9.304688 L 6.496094 9.304688 C 8.394531 9.304688 9.921875 10.855469 9.921875 12.777344 L 9.921875 12.160156 C 9.921875 10.234375 8.394531 8.683594 6.496094 8.683594 Z M 9.921875 17.121094 L 9.921875 17.738281 L 44.652344 17.738281 L 44.652344 17.121094 Z M 9.921875 17.121094 "/>
<path style=" stroke:none;fill-rule:nonzero;fill:rgb(12.941177%,12.941177%,12.941177%);fill-opacity:1;" d="M 6.40625 8.667969 C 4.429688 8.667969 2.835938 10.285156 2.835938 12.28125 L 2.835938 40.066406 C 2.835938 41.242188 3.785156 42.191406 4.960938 42.191406 L 42.667969 42.191406 C 43.84375 42.191406 44.792969 41.242188 44.792969 40.066406 L 44.792969 17.101562 L 10.0625 17.101562 L 10.0625 12.28125 C 10.0625 10.285156 8.46875 8.667969 6.496094 8.667969 Z M 6.40625 8.949219 L 6.496094 8.949219 C 8.316406 8.949219 9.78125 10.433594 9.78125 12.28125 L 9.78125 17.382812 L 44.511719 17.382812 L 44.511719 40.066406 C 44.511719 41.089844 43.691406 41.910156 42.667969 41.910156 L 4.960938 41.910156 C 3.9375 41.910156 3.117188 41.089844 3.117188 40.066406 L 3.117188 12.28125 C 3.117188 10.433594 4.582031 8.949219 6.40625 8.949219 Z M 6.40625 8.949219 "/>
</g>
</svg>
